src/lib/packages/icons/src/assets/filled/arrow-forward-alt.svg

<svg width="24" height="24" viewBox="0 0 24 24" fill="none" xmlns="http://www.w3.org/2000/svg">
<path d="M22 10V14C22 14.552 21.553 15 21 15H16.9952C16.4422 15 15.9952 14.552 15.9952 14C15.9952 13.448 16.4422 13 16.9952 13H18.8611C17.4231 10.565 14.7809 9 11.8799 9C8.09293 9 4.84095 11.562 3.97295 15.23C3.86495 15.69 3.45402 16 3.00102 16C2.92502 16 2.84807 15.9919 2.77007 15.9729C2.23307 15.8459 1.90012 15.307 2.02812 14.769C3.11012 10.194 7.16215 6.99902 11.8811 6.99902C15.1291 6.99902 18.125 8.56911 20.001 11.0891V10C20.001 9.448 20.448 9 21.001 9C21.554 9 22 9.448 22 10Z" fill="currentColor"/>
</svg>

<svg xmlns="http://www.w3.org/2000/svg" width="24" height="24" fill="none"><path fill="currentColor" d="M22 10v4a1 1 0 0 1-1 1h-4.005a1 1 0 1 1 0-2h1.866a8.13 8.13 0 0 0-6.981-4c-3.787 0-7.04 2.562-7.907 6.23a1 1 0 1 1-1.945-.461c1.082-4.575 5.134-7.77 9.853-7.77 3.248 0 6.244 1.57 8.12 4.09V10A1 1 0 1 1 22 10Z"/></svg>
